src/view/frontend/web/svg/heroicons/outline/cog.svg

<svg  viewBox="0 0 24 24" fill="none" stroke="currentColor" xmlns="http://www.w3.org/2000/svg">
<path d="M10.3246 4.31731C10.751 2.5609 13.249 2.5609 13.6754 4.31731C13.9508 5.45193 15.2507 5.99038 16.2478 5.38285C17.7913 4.44239 19.5576 6.2087 18.6172 7.75218C18.0096 8.74925 18.5481 10.0492 19.6827 10.3246C21.4391 10.751 21.4391 13.249 19.6827 13.6754C18.5481 13.9508 18.0096 15.2507 18.6172 16.2478C19.5576 17.7913 17.7913 19.5576 16.2478 18.6172C15.2507 18.0096 13.9508 18.5481 13.6754 19.6827C13.249 21.4391 10.751 21.4391 10.3246 19.6827C10.0492 18.5481 8.74926 18.0096 7.75219 18.6172C6.2087 19.5576 4.44239 17.7913 5.38285 16.2478C5.99038 15.2507 5.45193 13.9508 4.31731 13.6754C2.5609 13.249 2.5609 10.751 4.31731 10.3246C5.45193 10.0492 5.99037 8.74926 5.38285 7.75218C4.44239 6.2087 6.2087 4.44239 7.75219 5.38285C8.74926 5.99037 10.0492 5.45193 10.3246 4.31731Z"  stroke-width="2" stroke-linecap="round" stroke-linejoin="round"/>
<path d="M15 12C15 13.6569 13.6569 15 12 15C10.3431 15 9 13.6569 9 12C9 10.3431 10.3431 9 12 9C13.6569 9 15 10.3431 15 12Z"  stroke-width="2" stroke-linecap="round" stroke-linejoin="round"/>
</svg>

<svg xmlns="http://www.w3.org/2000/svg" fill="none" viewBox="0 0 24 24" stroke="currentColor">
  <path stroke-linecap="round" stroke-linejoin="round" stroke-width="2" d="M10.325 4.317c.426-1.756 2.924-1.756 3.35 0a1.724 1.724 0 002.573 1.066c1.543-.94 3.31.826 2.37 2.37a1.724 1.724 0 001.065 2.572c1.756.426 1.756 2.924 0 3.35a1.724 1.724 0 00-1.066 2.573c.94 1.543-.826 3.31-2.37 2.37a1.724 1.724 0 00-2.572 1.065c-.426 1.756-2.924 1.756-3.35 0a1.724 1.724 0 00-2.573-1.066c-1.543.94-3.31-.826-2.37-2.37a1.724 1.724 0 00-1.065-2.572c-1.756-.426-1.756-2.924 0-3.35a1.724 1.724 0 001.066-2.573c-.94-1.543.826-3.31 2.37-2.37.996.608 2.296.07 2.572-1.065z"/>
  <path stroke-linecap="round" stroke-linejoin="round" stroke-width="2" d="M15 12a3 3 0 11-6 0 3 3 0 016 0z"/>
</svg>
